X:1
T:There Is Life for a Look
T:There Is Life for a Look
T:Edward G. Taylor
T:Amelia M. Hull, 1860
T:Public Domain Courtesy of the Cyber Hymnal™
T:Public Domain Courtesy of the Cyber Hymnal™
C:Edward G. Taylor
Z:Public Domain
Z:Courtesy of the Cyber Hymnal™
%%score ( 1 2 ) ( 3 4 )
L:1/8
Q:1/4=93
M:4/2
K:G
V:1 treble 
V:2 treble 
V:3 bass 
V:4 bass 
V:1
 ([B,G][CA]) | [DB]2 [DB][DB] [DB]2 [Ec]>[DB] | ([DB][CA])[B,G][CA] [DB]2 [GB][Ac] | %3
w: 1.~There~is *|life for a look at the|cru- * ci- fied One, There is|
w: 2.~Oh, *|why was He there as the|bear- * er of sin, If on|
w: 3.~It~is *|not th- y tears of re-|pent- * ance or prayers, But the|
w: 4.~Then *|doubt not thy wel- come, since|God * has de- clared There re-|
w: 5.~Then *|take with re- joic- ing from|Je- * sus at once Th- e|
 [Bd]2 [Bd]>[ce] (dB)[^CG][CB] | [FA]6 ([B,G][CA]) | [DB]2 [DB][DB] [DB]2 [Ec]>[DB] | %6
w: life at this mo- * ment for|thee; Then *|look, sin- ner, look un- to|
w: Je- sus thy guilt * was not|laid? Oh, *|why from His side flowed the|
w: blood, that a- tones * for the|soul; On *|Him, then, who shed it, thou|
w: main- eth no more * to be|done; That *|once in the end of the|
w: life ev- er- last- * ing He|gives; And *|know with as- sur- ance thou|
 (BA)[DG][FA] [GB]2 [GB][Fc] | [Bd]2 [GB][DG] [CA]2 [DB]>[CA] | [B,G]6 z || %9
w: Him * and be saved, Un- to|Him who was nailed to the|tree.|
w: sin- * cleans- ing blood, If His|dy- ing thy debt has not|paid?|
w: may- * est at once Th- y|weight of in- i- qui- ties|roll.|
w: world * He ap- peared, And com-|plet- ed the work He be-|gun.|
w: nev- * er canst die, Si- nce|Je- sus, thy right- eous- ness,|lives.|
"^Refrain" [FA]2 z [GB]2 z .[G^c]2 .[Gc]2 .!fermata![Fd]2 [DG][DA] | %10
w: |
w: |
w: Look! look! look and live! There is|
w: |
w: |
 [GB]2 [GB][GB] [GB]2 [Gc]>[GB] | (BA)[DG][FA] [GB]2 [GB][Gc] | [Gd]2 [GB][DG] [FA]2 [FB]>[FA] | %13
w: |||
w: |||
w: life for a look at the|cru- * ci- fied One, There is|life at this mo- ment for|
w: |||
w: |||
 [DG]4 z |] %14
w: |
w: |
w: thee.|
w: |
w: |
V:2
 x2 | x8 | x8 | x4 G2 x2 | x8 | x8 | F2 x6 | x8 | x7 || x14 | x8 | F2 x6 | x8 | x5 |] %14
V:3
 ([G,B,][G,C]) | [G,D]2 [G,D][G,D] [G,D]2 [G,E]>[G,D] | (DC)[D,B,][D,D] [G,D]2 [G,D][A,D] | %3
 [B,D]2 [B,D]>[CE] D2 [E,A,]A, | [D,D]6 ([G,B,][G,C]) | [G,B,]2 [G,D][G,D] [G,D]2 [G,E]>[G,D] | %6
 (DC)[D,B,][D,D] [G,D]2 [G,D][A,D] | B,2 [G,D][B,,B,] [D,C]2 [D,D]>[D,C] | [G,B,]6 z || %9
 [D,D]2 z [G,D]2 z [E,A,]2 [E,A,]2 !fermata![D,A,]2 [G,B,][G,C] | %10
 [G,D]2 [G,D][G,D] [G,D]2 [G,E]>[G,D] | (DC)[D,B,][D,D] [G,D]2 [G,D][A,D] | %12
 B,2 [G,D][B,,B,] [D,C]2 [D,D]>[D,C] | [G,B,]4 z |] %14
V:4
 x2 | x8 | D,2 x6 | x4 (B,G,)A, x | x8 | x8 | D,2 x6 | B,2 x6 | x7 || x14 | x8 | D,2 x6 | B,2 x6 | %13
 x5 |] %14

